X:70
T: Glackin's Fancy
S: Treoir
Z: B.Black
M: 4/4
L: 1/8
R: reel
K: Gdor
GF |: DG G2 DG G2 | FGAB c2 Bc | dg g2 fdcA |\
BGAG F2 EF |
DG G2 DG G2|FGAB c2 Bc |dg g2 fdcA |1 BGAG F2 G2 :|2\
BGAG FGEF ||
g2 g2 fdcA | Bcde f2 gf | dg g2 fdcA | BGAG F2 EF |
DG G2 DG G2 | FGAB c2 Bc | dg g2 fdcA |1 BGAG FGEF :|2\
BGAG F2 G2 ||
